!!!!SEGMENT: pl-kk--kk-i-334--001_costanzi-giovanni-battista--tantum-ergo-tantum-ergo.krn
!!!cenid: 17xx:1934
!!!COM: Costanzi, Giovanni Battista
!!!COM-rismid: pe20000434
!!!CDT: 1704-1778
!!!CNT: Italian
!!!OPR: Tantum ergo
!!!OTL: Tantum ergo
!!!OMV: 001
!!!PDT:
!!!AGN: Sacred
!!!SMS-siglum: PL-Kk
!!!SMS-shelfmark: Kk.I.334
!!!SMS-shelfwork: 001-001 M
!!!SMS-variant:
!!!SMS-altvar:
!!!NIFC-rismid: 1001143656
!!!URL-scan: http://repozytorium.nifc.pl/skany/pl-kk-nut--i-334
!!!ONB-nifc: UWAGA: części Tantum ergo: 1. Tantum ergo, 2. Genitori, 3. Amen
!!!AIN: 1 organ 1 vox
!!!key:
**kern	**fb	**kern	**text
*part2	*	*part1	*part1
*staff2	*	*staff1	*staff1
*Iorgan	*	*Ivox	*
*I"Organo	*	*I"=Canto Solo=	*
*I'org	*	*I'S solo	*
*clefF4	*	*clefC1	*
*k[f#]	*	*k[f#]	*
*G:	*	*G:	*
*M4/4	*	*M4/4	*
*met(c)	*	*met(c)	*
=1	=1	=1	=1
!LO:TX:t=P:problem=pięciolinia pomocnicza z partią sopranu	!	!LO:TX:a:t=Ad.o aſsai	!
!LO:TX:a:t=Ad.o aſsai	!	!LO:TX:b:t=1	!
8G\L	.	1r	.
16B\L	.	.	.
16c\JJ	.	.	.
8d\L	.	.	.
8G\J	.	.	.
8F#\L	.	.	.
8G\	.	.	.
8C\	.	.	.
8D\J	.	.	.
=2	=2	=2	=2
!LO:TX:t=P:problem=mixed beam	!	!	!
8GG/L	.	8dd\	Tan-
8G\	.	(4dd\	-tum
8G\	.	.	.
8c\J	.	8ee\)	.
8A\L	.	8cc\	er-
16G\L	.	8b\	-go
16A\JJ	.	.	.
8B\L	.	[4g\	sa-
8G\J	.	.	.
!LO:LB:g=original	!	!	!
=3	=3	=3	=3
8c\L	.	8g\]	.
8B\	.	16a\LL	-cra-
.	.	16b\JJ	.
8A\	.	4ccT\	-men-
8D\J	.	.	.
!	!	!LO:LB:g=original	!
8G\L	.	4b\	-tum
8G\	.	.	.
8G\	.	8r	.
8G\J	.	16dd\	ue-
.	.	16g\	-ne-
=4	=4	=4	=4
8c\L	.	8ee\	-re-
8c\J	.	8cc\	-mur
*	*	*Xtuplet	*
!	!	!LO:TUP:a:problem=klamra łukowa	!
8c\L	.	24g\LL	cer-
.	.	24a\	.
.	.	24b\JJ	.
!	!	!LO:TUP:a:problem=klamra łukowa	!
8c\J	.	24cc\LL	.
.	.	24dd\	.
.	.	24ee\JJ	.
8B\L	.	8.dd\	.
8B\	.	.	.
.	.	16cc\	-nu-
8B\	.	4b\	-i
8B\J	.	.	.
!LO:LB:g=original	!	!LO:LB:g=original	!
=5	=5	=5	=5
!	!	!LO:TUP:a:problem=klamra łukowa	!
8A\L	.	24cc\LL	ue-
.	.	24ee\	.
.	.	24dd\JJ	.
8A\J	.	24cc\LL	-ne-
.	.	24b\	.
.	.	24a\JJ	.
8D\L	.	8.f#/	-re-
8D\J	.	.	.
.	.	16cc\	-mur
8G\L	.	8.cc\	cer-
8G\	.	.	.
.	.	16b\	-nu-
8G\	.	4b\	-i
8G\J	.	.	.
=6	=6	=6	=6
8A\L	#3	8a\	et
8A\	.	(4a\	an-
8A\	.	.	.
8A\J	.	8b\)	.
8A\L	.	8cc#X\	ti-
8A\	.	(4cc#\	-quum
8A\	.	.	.
8A\J	.	8dd\)	.
!LO:LB:g=original	!	!LO:LB:g=original	!
=7	=7	=7	=7
8A\L	.	24ee\LL	do-
.	.	24cc#X\	.
.	.	24ee\JJ	.
8A\J	.	24dd\LL	-cu-
.	.	24cc#\JJ	.
.	.	24b\	-m-
8A\L	.	8a\L	-en-
8A\J	.	8g\J	.
8D\L	.	8g\L	-tum
8D\J	.	8f#\J	.
8D\L	.	8r	.
8D\J	.	16dd\	no-
.	.	16a\	-vo
=8	=8	=8	=8
8G\L	.	32b\LLL	ce-
.	.	32cc\	.
.	.	32b\	.
.	.	32a\JJJ	.
8G\J	.	32b\LLL	.
.	.	32g\	.
.	.	32f#\	.
.	.	32g\JJJ	.
8G\L	.	(16dd\LL	.
.	.	16b\	.
8G\J	.	16dd\	.
.	.	16b\JJ)	.
!LO:PB:g=original	!	!LO:LB:g=original	!
8F#\L	6	32a\LLL	.
.	.	32b\	.
.	.	32a\	.
.	.	32g\JJJ	.
8F#\J	.	32a/LLL	.
.	.	32f#/	.
.	.	32e/	.
.	.	32f#/JJJ	.
8F#\L	.	(16dd\LL	.
.	.	16a\	.
8F#\J	.	16dd\)	.
.	.	16a\JJ	.
=9	=9	=9	=9
8E\L	#6	16g\LL	.
.	.	16ee\	.
8E\J	.	16ee\	.
.	.	16ee\JJ	.
8AA/L	#3	24ee\LL	.
.	.	24dd\	.
.	.	24cc#X\JJ	.
8AA/J	.	32f#/LLL	.
.	.	32d/	.
.	.	32e/	.
.	.	32f#/JJJ	.
8D\L	.	32g\LLL	.
.	.	32a\	.
.	.	32b\	.
.	.	32cc#X\JJJ	.
8D\J	.	32dd\LLL	.
.	.	32cc#X\	.
.	.	32ff#\	.
.	.	32ee\JJJ	.
!	!	!LO:N:vis=16	!
8D\L	.	8dd\	.
!	!	!LO:N:vis=16	!
8D\J	.	8f#/	-dat
!	!	!LO:LB:g=original	!
=10	=10	=10	=10
8A\L	.	8.f#/	ri-
8A\	.	.	.
.	.	16e/	-tu-
8A\	.	4e/	-i
8A\J	.	.	.
!LO:LB:g=original	!	!	!
8G\L	#4	16.cc#X\LL	no-
.	.	64dd\LL	.
.	.	64ee\JJJJ	.
8F#\J	6	8dd\|	-vo
8G\L	#4	16.cc#\LL	ce-
.	.	64dd\LL	.
.	.	64ee\JJJJ	.
8F#\J	6	8dd\|	-dat
=11	=11	=11	=11
!LO:TX:t=P:problem=mixed beam	!	!LO:TUP:a:problem=klamra łukowa	!
8G\L	5	24b\LL	no-
.	.	24cc#X\	.
.	.	24dd\JJ	.
!	!	!LO:TUP:a:problem=klamra łukowa	!
8C#X/J	6 5	24ee\LL	-vo
.	.	24ff#\	.
.	.	24gg\JJ	.
!	!	!LO:TUP:a:problem=klamra łukowa	!
8D\L	.	24ff#\LL	ce-
.	.	24ee\	.
.	.	24dd\JJ	.
!	!	!LO:TUP:a:problem=klamra łukowa	!
8D\J	.	24cc#X\LL	-dat
.	.	24b\	.
.	.	24a\JJ	.
16A\LL	6 4	4a\	ri-
16A\	.	.	.
16A\	.	.	.
16A\JJ	.	.	.
16AA/LL	5 #3	8.eeT\	.
16AA/	.	.	.
16AA/	.	.	.
16AA/JJ	.	16dd\	-tu-
!	!	!LO:LB:g=original	!
=12	=12	=12	=12
8d\L	.	4dd\	-i
8B\	.	.	.
8G\	.	4r	.
8A\J	.	.	.
!LO:LB:g=original	!	!	!
8D\L	.	4r	.
16D\L	.	.	.
16D\JJ	.	.	.
4D\	.	8r	.
.	.	16a\	Pre-
.	.	16dd\	-stet
=13	=13	=13	=13
8A\L	.	8.cc#X\	fi-
8A\J	.	.	.
.	.	16b\	-deſ
.	.	8qqcc#/	.
8C#X/L	.	8.a\	sup-
8C#/J	.	.	.
.	.	16g\	-ple-
8D\L	.	8g/	-men-
8D\J	#	8f#/	-tum
.	6	.	.
8B\L	n	[4dd\	sen-
8A\J	6 4	.	.
!	!	!LO:LB:g=original	!
=14	=14	=14	=14
8G#X\L	n7	16dd\]	.
.	.	16dd\	-su-
8G#\J	.	16ee\	-um
.	.	16ffn\	de-
8G#\L	7	8ff\	-fe-
.	6	.	.
8G#\J	5	16ee\LL	-ctu-
.	.	16dd\JJ	.
.	.	8qqdd/	.
!LO:LB:g=original	!	!	!
8A\L	.	8cc\	-i
8cn\	.	8r	.
8A\	.	[4cc\	sen-
8G#\J	.	.	.
=15	=15	=15	=15
8F#X\L	5	16cc\]	.
.	.	16cc\	-su-
8F#\	.	16dd\	-us
.	.	16ee\	de-
.	.	8qqee/	.
8F#\	6	8.dd\	-fe-
8F#\J	5	.	.
.	.	16cc\	-ctu-
!	!	!LO:LB:g=original	!
8G\L	5	8b\	-i
8G\	.	8dd\	sen-
8B\	6	8b\	-su-
8B\J	.	8g\	-us
=16	=16	=16	=16
8c\L	.	24ee\LL	de-
.	.	24dd\	.
.	.	24cc\JJ	.
8c\	.	4cc\	-fe-
8c\	.	.	.
8c\J	.	8g\	.
8B\L	.	24dd\LL	.
.	.	24cc\	.
.	.	24b\JJ	.
8B\	.	4b\	.
8B\	.	.	.
8B\J	.	8g\	.
!LO:LB:g=original	!	!	!
=17	=17	=17	=17
8A\L	#6	24f#\LL	.
.	.	24a\	.
.	.	24g\JJ	.
8D\J	#	24a\LL	.
.	7	24cc\	.
.	.	24b\JJ	.
8D\L	.	8.ccT\L	.
8D\J	.	.	.
.	.	32b\LL	.
.	.	32a\JJJ	.
!	!	!LO:PB:g=original	!
8D\L	6 4	24g\LL	.
.	.	24b\	.
.	.	24a\JJ	.
8D\J	.	24b\LL	.
.	.	24dd\	.
.	.	24cc\JJ	.
8D\L	.	8.ddT\L	.
8D\J	.	.	.
.	.	32cc\LL	.
.	.	32b\JJJ	.
=18	=18	=18	=18
8D/L	n7 #3	24a\LL	.
.	.	24cc\	.
.	.	24b\JJ	.
8D/J	.	24cc\LL	.
.	.	24ee\	.
.	.	24dd\JJ	.
8D/L	.	8.ee\L	.
8D/J	.	.	.
.	.	32dd\LL	.
.	.	32cc\JJJ	.
8G\L	.	32b\LLL	.
.	.	32g\	.
.	.	(32a\	.
.	.	32b\JJJ	.
8G\J	.	32cc\LLL	.
.	.	32dd\	.
.	.	32ee\	.
.	.	32ff#X\JJJ	.
8G\L	n7	16gg\LL	.
.	.	16ffn\)	.
8G\J	.	16ee\	.
.	.	16dd\JJ	.
!LO:LB:g=original	!	!LO:LB:g=original	!
=19	=19	=19	=19
8c\L	.	8ee\	.
8c\J	.	24ee\LL	.
.	.	24ff#X\	.
.	.	24gg\JJ	.
!LO:TX:t=P:problem=mixed beam	!	!	!
8d\L	.	24ff#\LL	.
.	.	24ee\	.
.	.	24dd\JJ	.
8D/J	#3	24cc\LL	.
.	.	24b\	.
.	.	24a\JJ	.
8G\L	.	24b\LL	.
.	.	24dd\	.
.	.	24cc\JJ	.
8G\J	.	24b\LL	.
.	.	24a\	.
.	.	24g\JJ	.
8D\L	.	8.aT\	.
8D\J	.	.	.
.	.	16g\	-ctu-
=20	=20	=20	=20
4GG/	.	4g\	-i
4r	.	4r	.
2r	.	2r	.
==	==	==	==
*-	*-	*-	*-
!!!system-decoration: {s1,s2}
!!!ENC: Marta Lawrence
!!!END: 2021-02-20
!!!ENC: Krzysztof Stępień
!!!END: 2021-02-06
!!!RDF**kern: | = vertical stroke
